X: 1
T: Ceol Agus Craic!
M: 9/8
L: 1/8
R: slip jig
K: Gmaj
|:GDG BAG FED|GDB DdD cBA|
GDG BAG FED|BdB cAF G3 :|
|:e2B e2f gfe|d2g d2c Bcd|
e2B e2f gfe|eGd GcG Bcd|
e2B e2f gfe|d2g d2c Bcd|
eGd GcG BAG|BdB cAF G3:|
